austria/municipalities/41404.svg

<?xml version="1.0" encoding="UTF-8"?>
<!DOCTYPE svg PUBLIC "-//W3C//DTD SVG 1.1//EN" "http://www.w3.org/Graphics/SVG/1.1/DTD/svg11.dtd">
<svg xmlns="http://www.w3.org/2000/svg" version="1.1" width="166px" height="207px" style="shape-rendering:geometricPrecision; text-rendering:geometricPrecision; image-rendering:optimizeQuality; fill-rule:evenodd; clip-rule:evenodd" xmlns:xlink="http://www.w3.org/1999/xlink">
<g><path style="opacity:1" fill="#000000" d="M -0.5,-0.5 C 54.8333,-0.5 110.167,-0.5 165.5,-0.5C 165.5,44.1667 165.5,88.8333 165.5,133.5C 157.53,172.472 134.197,196.805 95.5,206.5C 86.8333,206.5 78.1667,206.5 69.5,206.5C 29.6208,196.954 6.2875,171.954 -0.5,131.5C -0.5,87.5 -0.5,43.5 -0.5,-0.5 Z"/></g>
<g><path style="opacity:1" fill="#cb0000" d="M 3.5,3.5 C 56.1667,3.5 108.833,3.5 161.5,3.5C 162.122,12.9321 161.456,22.0988 159.5,31C 155.5,31.6667 151.5,31.6667 147.5,31C 135.95,23.1778 124.283,22.8444 112.5,30C 108.167,30.6667 103.833,30.6667 99.5,30C 93.6672,27.1669 87.5005,25.6669 81,25.5C 72.1484,27.0055 63.3151,28.6721 54.5,30.5C 45.2632,27.8575 35.9299,25.5241 26.5,23.5C 20.8508,24.8224 15.5175,26.9891 10.5,30C 8.19018,30.4966 5.85684,30.6633 3.5,30.5C 3.5,21.5 3.5,12.5 3.5,3.5 Z"/></g>
<g><path style="opacity:1" fill="#fefffe" d="M 22.5,26.5 C 30.9394,26.3676 38.9394,28.2009 46.5,32C 49.1667,32.1667 51.8333,32.3333 54.5,32.5C 63.446,31.388 72.2794,29.7214 81,27.5C 89.3329,29.4999 97.6662,31.4999 106,33.5C 113.538,31.6478 121.038,29.6478 128.5,27.5C 135.621,28.2249 142.288,30.3915 148.5,34C 152.871,34.6292 157.204,34.4625 161.5,33.5C 161.833,46.85 161.499,60.1833 160.5,73.5C 157.208,75.1982 153.708,76.1982 150,76.5C 143.398,74.5299 136.732,72.8632 130,71.5C 122.904,73.6242 115.737,75.6242 108.5,77.5C 101.783,76.9832 95.4498,75.1498 89.5,72C 84.8333,71.3333 80.1667,71.3333 75.5,72C 68.985,75.1717 62.1517,77.3383 55,78.5C 47.6871,76.5924 40.5205,74.259 33.5,71.5C 26.7531,73.0265 20.0864,74.8599 13.5,77C 10.1832,77.4983 6.8499,77.665 3.5,77.5C 3.5,62.8333 3.5,48.1667 3.5,33.5C 10.4092,32.5374 16.7425,30.2041 22.5,26.5 Z"/></g>
<g><path style="opacity:1" fill="#000000" d="M 51.5,37.5 C 56.8278,37.3368 58.8278,39.6701 57.5,44.5C 56.2054,45.0983 54.8721,45.5983 53.5,46C 82.5,46.3333 111.5,46.6667 140.5,47C 144.759,48.9343 148.759,51.2677 152.5,54C 148.664,56.0836 144.997,58.417 141.5,61C 112.167,61.3333 82.8333,61.6667 53.5,62C 59.0637,65.5715 58.7303,68.4049 52.5,70.5C 47.3312,69.6579 45.3312,66.6579 46.5,61.5C 43.7702,61.4734 41.2702,62.1401 39,63.5C 36.6367,63.4725 35.1367,62.3059 34.5,60C 31.8121,59.6076 29.1454,59.1076 26.5,58.5C 23.505,59.6636 20.505,60.8303 17.5,62C 15.5594,62.7429 13.7261,62.5762 12,61.5C 6.82157,46.3427 11.4882,42.0094 26,48.5C 29.4726,47.8371 32.9726,47.5037 36.5,47.5C 36.244,45.0876 37.244,43.4209 39.5,42.5C 41.9823,44.3435 44.649,45.6769 47.5,46.5C 47.499,42.7312 48.8324,39.7312 51.5,37.5 Z"/></g>
<g><path style="opacity:1" fill="#cb0000" d="M 51.5,39.5 C 58.0853,40.9848 58.0853,42.3182 51.5,43.5C 51.5,50.5 51.5,57.5 51.5,64.5C 56.4286,65.3461 56.5953,66.6794 52,68.5C 50.3468,68.1802 49.3468,67.1802 49,65.5C 48.3333,59.5 48.3333,53.5 49,47.5C 49.0971,44.5177 49.9304,41.8511 51.5,39.5 Z"/></g>
<g><path style="opacity:1" fill="#cb0000" d="M 38.5,45.5 C 40.1033,45.3118 41.4366,45.8118 42.5,47C 40.5925,51.6081 39.9258,56.2748 40.5,61C 38.6123,60.8731 36.9457,60.0398 35.5,58.5C 32.5252,57.8607 29.5252,57.3607 26.5,57C 23.8333,55 23.8333,53 26.5,51C 30.4728,49.9722 34.4728,49.1389 38.5,48.5C 38.5,47.5 38.5,46.5 38.5,45.5 Z"/></g>
<g><path style="opacity:1" fill="#cb0000" d="M 13.5,47.5 C 20.4223,47.5832 22.9223,50.9165 21,57.5C 15.5317,62.1891 12.365,60.8558 11.5,53.5C 12.1776,51.484 12.8443,49.484 13.5,47.5 Z"/></g>
<g><path style="opacity:1" fill="#cb0000" d="M 43.5,48.5 C 44.5,48.5 45.5,48.5 46.5,48.5C 46.5,51.8333 46.5,55.1667 46.5,58.5C 45.1779,58.67 44.0113,58.3366 43,57.5C 42.3658,54.4453 42.5325,51.4453 43.5,48.5 Z"/></g>
<g><path style="opacity:1" fill="#003266" d="M 54.5,49.5 C 82.6637,48.3363 110.997,48.1696 139.5,49C 141.833,50 144.167,51 146.5,52C 116.833,52.6667 87.1667,52.6667 57.5,52C 56.6266,50.955 55.6266,50.1217 54.5,49.5 Z"/></g>
<g><path style="opacity:1" fill="#cb0000" d="M 52.5,51.5 C 56.3404,52.5678 56.5071,54.2345 53,56.5C 52.5065,54.8659 52.3398,53.1992 52.5,51.5 Z"/></g>
<g><path style="opacity:1" fill="#003266" d="M 58.5,54.5 C 88.1685,54.3334 117.835,54.5 147.5,55C 145.33,56.5862 142.996,57.9196 140.5,59C 111.828,59.8332 83.1609,59.6665 54.5,58.5C 55.8814,57.1186 57.2147,55.7853 58.5,54.5 Z"/></g>
<g><path style="opacity:1" fill="#cb0000" d="M 79.5,73.5 C 88.9271,75.8081 98.4271,77.8081 108,79.5C 111.57,79.4565 115.07,78.9565 118.5,78C 126.469,72.0873 134.469,72.0873 142.5,78C 148.651,78.9657 154.651,78.4657 160.5,76.5C 161.833,91.5 161.833,106.5 160.5,121.5C 155.366,120.737 151.699,122.904 149.5,128C 148.668,128.688 148.002,128.521 147.5,127.5C 147.854,122.479 150.521,119.813 155.5,119.5C 155.67,118.178 155.337,117.011 154.5,116C 150.751,113.614 147.084,113.447 143.5,115.5C 141.476,117.69 139.643,120.023 138,122.5C 137.715,118.721 138.882,115.388 141.5,112.5C 140.652,111.009 139.319,110.342 137.5,110.5C 135.423,110.692 133.423,111.192 131.5,112C 130,114.167 128.5,116.333 127,118.5C 125.625,114.102 126.958,110.768 131,108.5C 131.617,107.551 131.451,106.718 130.5,106C 123.214,104.27 118.714,107.104 117,114.5C 115.733,110.641 116.233,106.808 118.5,103C 118.333,101.5 117.5,100.667 116,100.5C 110.887,102.37 107.887,106.036 107,111.5C 106.749,109.567 106.249,107.734 105.5,106C 106.316,104.077 106.983,102.077 107.5,100C 105.017,96.9347 102.517,97.1013 100,100.5C 98.5621,103.993 97.0621,107.327 95.5,110.5C 94.4471,109.562 93.7804,108.395 93.5,107C 94.4032,104.123 95.4032,101.29 96.5,98.5C 96.1322,97.09 95.2989,96.09 94,95.5C 87.1443,98.5294 83.811,103.863 84,111.5C 83.077,109.966 82.577,108.299 82.5,106.5C 83.584,102.912 84.9173,99.4122 86.5,96C 86.3865,94.7202 85.7199,93.8869 84.5,93.5C 77.2362,95.2703 73.4028,99.937 73,107.5C 72.3623,106.391 71.8623,105.225 71.5,104C 74.692,96.1897 72.8587,94.6897 66,99.5C 63.9869,104.612 62.9869,109.945 63,115.5C 59.8643,110.988 59.6976,106.321 62.5,101.5C 60.5666,98.1949 58.2332,98.1949 55.5,101.5C 54.4164,102.665 53.5831,103.998 53,105.5C 52.6667,109.833 52.3333,114.167 52,118.5C 48.7464,114.326 48.2464,109.993 50.5,105.5C 48.7048,101.657 46.5381,101.657 44,105.5C 42.0597,109.943 41.0597,114.61 41,119.5C 38.3972,115.771 37.7306,111.771 39,107.5C 37.9505,106.483 36.7839,106.316 35.5,107C 31.5751,113.194 29.7417,120.028 30,127.5C 27.7922,123.116 26.9589,118.449 27.5,113.5C 24.1922,112.974 22.0255,114.307 21,117.5C 20.5,120 20,122.5 19.5,125C 20.4257,128.139 20.5923,131.306 20,134.5C 19.3848,132.884 18.3848,131.551 17,130.5C 16.8253,126.789 16.3253,123.122 15.5,119.5C 14.914,119.291 14.414,118.957 14,118.5C 10.078,121.488 8.24466,125.488 8.5,130.5C 10.5073,135.673 9.84061,140.34 6.5,144.5C 5.47797,141.559 4.64464,138.559 4,135.5C 3.50006,117.17 3.33339,98.8364 3.5,80.5C 6.51838,80.6646 9.51838,80.498 12.5,80C 19.235,77.7747 26.0684,75.9414 33,74.5C 38.6153,75.9273 44.1153,77.7606 49.5,80C 60.1214,80.3423 70.1214,78.1756 79.5,73.5 Z"/></g>
<g><path style="opacity:1" fill="#fe9900" d="M 82.5,96.5 C 83.0431,96.56 83.3764,96.8933 83.5,97.5C 78.0981,103.68 78.2648,109.68 84,115.5C 85,114.167 86,112.833 87,111.5C 86.5908,105.989 88.5908,101.655 93,98.5C 92.4017,101.027 91.9017,103.693 91.5,106.5C 91.383,109.597 92.383,112.264 94.5,114.5C 95.7481,113.96 96.9148,113.293 98,112.5C 99.3989,109.637 100.399,106.637 101,103.5C 101.368,102.09 102.201,101.09 103.5,100.5C 103.159,105.774 103.826,111.108 105.5,116.5C 109.192,113.275 111.692,109.275 113,104.5C 113.893,103.289 114.726,103.289 115.5,104.5C 113.757,109.333 113.09,114.333 113.5,119.5C 117.817,118.68 120.317,116.013 121,111.5C 122.389,109.773 124.056,108.439 126,107.5C 126.5,107.833 127,108.167 127.5,108.5C 125.774,110.228 124.441,112.228 123.5,114.5C 124.833,116.5 124.833,118.5 123.5,120.5C 125.074,121.631 126.741,121.798 128.5,121C 130.167,118.667 131.833,116.333 133.5,114C 134.833,113.333 136.167,113.333 137.5,114C 136.245,117.826 134.578,121.493 132.5,125C 134.5,125.667 136.5,125.667 138.5,125C 140.964,121.545 143.964,118.711 147.5,116.5C 148.795,117.098 150.128,117.598 151.5,118C 149.919,118.707 148.419,119.54 147,120.5C 146.097,124.132 144.597,127.466 142.5,130.5C 144.765,131.647 147.098,131.814 149.5,131C 151.351,129.316 153.018,127.483 154.5,125.5C 155.62,124.167 156.953,123.667 158.5,124C 156.297,127.611 154.464,131.444 153,135.5C 152.25,136.126 151.416,136.626 150.5,137C 153.656,137.937 156.489,139.437 159,141.5C 151.988,171.185 133.822,190.685 104.5,200C 67.654,208.598 38.154,197.765 16,167.5C 13.0548,161.944 10.3881,156.277 8,150.5C 7.5882,147.648 8.5882,145.314 11,143.5C 11.7382,139.29 11.5715,135.124 10.5,131C 11.1037,128.416 11.9371,125.916 13,123.5C 14.4501,129.722 16.4501,135.722 19,141.5C 21.8743,139.935 23.3743,137.435 23.5,134C 21.8114,127.616 22.3114,121.449 25,115.5C 24.2237,122.222 26.2237,127.888 31,132.5C 32.6693,124.881 34.336,117.214 36,109.5C 36.713,115.307 38.0464,120.974 40,126.5C 41.3333,125.833 42.3333,124.833 43,123.5C 43.357,118.022 44.357,112.688 46,107.5C 45.8945,112.952 47.7278,117.618 51.5,121.5C 54.4168,119.666 55.7501,117 55.5,113.5C 53.8977,109.344 54.731,105.677 58,102.5C 58.6514,104.235 58.4847,105.902 57.5,107.5C 59.5472,111.224 60.5472,115.224 60.5,119.5C 63.2919,119.548 65.1253,118.215 66,115.5C 66.0116,110.306 66.8449,105.306 68.5,100.5C 71.2908,120.197 74.4575,120.197 78,100.5C 79.3968,98.9297 80.8968,97.5964 82.5,96.5 Z"/></g>
<g><path style="opacity:1" fill="#cb0000" d="M 160.5,124.5 C 161.848,129.406 161.682,134.406 160,139.5C 158.786,137.951 157.286,136.785 155.5,136C 156.983,132.103 158.649,128.269 160.5,124.5 Z"/></g>
<g><path style="opacity:1" fill="#010101" d="M 122.5,131.5 C 124.525,128.899 126.358,129.232 128,132.5C 128.333,134.047 127.833,135.38 126.5,136.5C 126.808,137.308 127.308,137.975 128,138.5C 129.512,137.743 130.846,136.743 132,135.5C 133.299,136.09 134.132,137.09 134.5,138.5C 133.833,140.167 133.167,141.833 132.5,143.5C 137.23,154.406 136.397,164.739 130,174.5C 123.154,181.177 114.988,183.343 105.5,181C 97.4473,177.59 93.2807,171.423 93,162.5C 93.3726,154.852 93.3726,147.186 93,139.5C 90,135.5 87,135.5 84,139.5C 83.577,148.636 84.577,157.636 87,166.5C 89.5401,182.624 82.7068,190.124 66.5,189C 59.7456,185.884 56.7456,180.551 57.5,173C 59.333,162.186 59.6663,151.353 58.5,140.5C 56.5,140.5 54.5,140.5 52.5,140.5C 52.6663,147.508 52.4996,154.508 52,161.5C 49.9391,170.451 44.4391,173.618 35.5,171C 30.709,167.366 28.8757,162.533 30,156.5C 31.2329,151.699 33.7329,147.699 37.5,144.5C 38.3081,144.808 38.9747,145.308 39.5,146C 36.1989,151.039 35.0322,156.539 36,162.5C 37.9197,165.438 40.4197,166.105 43.5,164.5C 45.0419,162.121 45.7086,159.454 45.5,156.5C 45.3405,151.882 44.6738,147.382 43.5,143C 47.1592,131.673 54.1592,129.006 64.5,135C 67.451,138.961 68.7843,143.461 68.5,148.5C 66.9379,157.462 66.1045,166.462 66,175.5C 67.2429,180.921 70.4096,182.588 75.5,180.5C 76.8064,179.088 77.6397,177.421 78,175.5C 78.2427,164.435 77.4094,153.435 75.5,142.5C 76.5777,129.459 83.2444,125.292 95.5,130C 100.046,135.636 102.212,142.136 102,149.5C 103.825,148.897 105.659,148.23 107.5,147.5C 106.524,145.877 107.024,144.543 109,143.5C 116.145,145.054 117.312,142.887 112.5,137C 113.5,136.5 114.5,136 115.5,135.5C 117.157,136.732 118.824,137.566 120.5,138C 121.43,136.605 121.43,135.105 120.5,133.5C 120.747,132.287 121.414,131.62 122.5,131.5 Z"/></g>
<g><path style="opacity:1" fill="#fefffe" d="M -0.5,131.5 C 6.2875,171.954 29.6208,196.954 69.5,206.5C 46.1667,206.5 22.8333,206.5 -0.5,206.5C -0.5,181.5 -0.5,156.5 -0.5,131.5 Z"/></g>
<g><path style="opacity:1" fill="#cb0000" d="M 122.5,131.5 C 123.5,131.5 124.5,131.5 125.5,131.5C 124.159,134.604 124.493,137.438 126.5,140C 128.961,139.592 131.294,138.926 133.5,138C 132.624,139.586 131.624,141.086 130.5,142.5C 125.964,142.706 121.298,142.706 116.5,142.5C 116.703,140.61 116.037,139.11 114.5,138C 116.902,139.046 119.568,139.546 122.5,139.5C 122.5,136.833 122.5,134.167 122.5,131.5 Z"/></g>
<g><path style="opacity:1" fill="#fefffe" d="M 165.5,133.5 C 165.5,157.833 165.5,182.167 165.5,206.5C 142.167,206.5 118.833,206.5 95.5,206.5C 134.197,196.805 157.53,172.472 165.5,133.5 Z"/></g>
<g><path style="opacity:1" fill="#fefffe" d="M 117.5,146.5 C 118.91,145.172 120.076,145.505 121,147.5C 122.067,145.717 123.567,145.217 125.5,146C 122.821,148.86 120.154,149.027 117.5,146.5 Z"/></g>
<g><path style="opacity:1" fill="#fe9900" d="M 101.5,150.5 C 105.68,151.726 109.846,153.06 114,154.5C 118.083,153.081 122.25,152.581 126.5,153C 127.17,158.675 126.003,164.175 123,169.5C 117.354,174.03 111.187,174.697 104.5,171.5C 102.297,169.705 101.131,167.371 101,164.5C 100.436,159.806 100.603,155.14 101.5,150.5 Z"/></g>
</svg>

<svg xmlns="http://www.w3.org/2000/svg" width="166" height="207" style="shape-rendering:geometricPrecision;text-rendering:geometricPrecision;image-rendering:optimizeQuality;fill-rule:evenodd;clip-rule:evenodd"><path style="opacity:1" d="M-.5-.5h166v134c-7.97 38.972-31.303 63.305-70 73h-26c-39.88-9.546-63.212-34.546-70-75V-.5z"/><path style="opacity:1" fill="#cb0000" d="M3.5 3.5h158c.622 9.432-.044 18.599-2 27.5-4 .667-8 .667-12 0-11.55-7.822-23.217-8.156-35-1a42.498 42.498 0 0 1-13 0c-5.833-2.833-12-4.333-18.5-4.5a749.237 749.237 0 0 0-26.5 5 429.434 429.434 0 0 0-28-7 55.505 55.505 0 0 0-16 6.5c-2.31.497-4.643.663-7 .5v-27z"/><path style="opacity:1" fill="#fefffe" d="M22.5 26.5c8.44-.132 16.44 1.7 24 5.5l8 .5a214.37 214.37 0 0 0 26.5-5l25 6a592.29 592.29 0 0 0 22.5-6c7.121.725 13.788 2.892 20 6.5 4.371.63 8.704.462 13-.5a400.775 400.775 0 0 1-1 40 27.556 27.556 0 0 1-10.5 3 228.497 228.497 0 0 0-20-5 599.284 599.284 0 0 1-21.5 6 48.068 48.068 0 0 1-19-5.5 49.248 49.248 0 0 0-14 0A73.514 73.514 0 0 1 55 78.5a189.5 189.5 0 0 1-21.5-7 226.259 226.259 0 0 0-20 5.5c-3.317.498-6.65.665-10 .5v-44c6.91-.963 13.242-3.296 19-7z"/><path style="opacity:1" d="M51.5 37.5c5.328-.163 7.328 2.17 6 7a28.83 28.83 0 0 1-4 1.5l87 1a67.876 67.876 0 0 1 12 7 94.037 94.037 0 0 0-11 7l-88 1c5.564 3.572 5.23 6.405-1 8.5-5.169-.842-7.169-3.842-6-9-2.73-.027-5.23.64-7.5 2-2.363-.028-3.863-1.194-4.5-3.5a100.719 100.719 0 0 1-8-1.5c-2.995 1.164-5.995 2.33-9 3.5-1.94.743-3.774.576-5.5-.5-5.178-15.157-.512-19.49 14-13a56.19 56.19 0 0 1 10.5-1c-.256-2.412.744-4.08 3-5 2.482 1.843 5.149 3.177 8 4-.001-3.769 1.332-6.769 4-9z"/><path style="opacity:1" fill="#cb0000" d="M51.5 39.5c6.585 1.485 6.585 2.818 0 4v21c4.929.846 5.095 2.18.5 4-1.653-.32-2.653-1.32-3-3-.667-6-.667-12 0-18 .097-2.982.93-5.649 2.5-8zM38.5 45.5c1.603-.188 2.937.312 4 1.5-1.907 4.608-2.574 9.275-2 14-1.888-.127-3.554-.96-5-2.5a98.077 98.077 0 0 0-9-1.5c-2.667-2-2.667-4 0-6a127.895 127.895 0 0 1 12-2.5v-3zM13.5 47.5c6.922.083 9.422 3.416 7.5 10-5.468 4.69-8.635 3.356-9.5-4 .678-2.016 1.344-4.016 2-6zM43.5 48.5h3v10c-1.322.17-2.489-.163-3.5-1-.634-3.055-.468-6.055.5-9z"/><path style="opacity:1" fill="#003266" d="M54.5 49.5a1206.949 1206.949 0 0 1 85-.5l7 3c-29.667.667-59.333.667-89 0a10.521 10.521 0 0 0-3-2.5z"/><path style="opacity:1" fill="#cb0000" d="M52.5 51.5c3.84 1.068 4.007 2.734.5 5-.493-1.634-.66-3.3-.5-5z"/><path style="opacity:1" fill="#003266" d="M58.5 54.5c29.668-.167 59.335 0 89 .5a36.17 36.17 0 0 1-7 4c-28.672.833-57.34.666-86-.5l4-4z"/><path style="opacity:1" fill="#cb0000" d="M79.5 73.5a446.788 446.788 0 0 0 28.5 6c3.57-.043 7.07-.543 10.5-1.5 7.969-5.913 15.969-5.913 24 0 6.151.966 12.151.466 18-1.5 1.333 15 1.333 30 0 45-5.134-.763-8.801 1.404-11 6.5-.832.688-1.498.521-2-.5.354-5.021 3.021-7.687 8-8 .17-1.322-.163-2.489-1-3.5-3.749-2.386-7.416-2.553-11-.5a55.482 55.482 0 0 0-5.5 7c-.285-3.779.882-7.112 3.5-10-.848-1.491-2.181-2.158-4-2a20.2 20.2 0 0 0-6 1.5l-4.5 6.5c-1.375-4.398-.042-7.732 4-10 .617-.949.451-1.782-.5-2.5-7.286-1.73-11.786 1.104-13.5 8.5-1.267-3.859-.767-7.692 1.5-11.5-.167-1.5-1-2.333-2.5-2.5-5.113 1.87-8.113 5.536-9 11a20.431 20.431 0 0 0-1.5-5.5 40.179 40.179 0 0 0 2-6c-2.483-3.065-4.983-2.899-7.5.5a163.89 163.89 0 0 1-4.5 10 6.204 6.204 0 0 1-2-3.5c.903-2.877 1.903-5.71 3-8.5-.368-1.41-1.201-2.41-2.5-3-6.856 3.03-10.189 8.363-10 16a10.413 10.413 0 0 1-1.5-5 79.71 79.71 0 0 1 4-10.5c-.114-1.28-.78-2.113-2-2.5-7.264 1.77-11.097 6.437-11.5 14a16.23 16.23 0 0 1-1.5-3.5c3.192-7.81 1.359-9.31-5.5-4.5-2.013 5.112-3.013 10.445-3 16-3.136-4.512-3.302-9.179-.5-14-1.933-3.305-4.267-3.305-7 0a12.412 12.412 0 0 0-2.5 4l-1 13c-3.254-4.174-3.754-8.507-1.5-13-1.795-3.843-3.962-3.843-6.5 0-1.94 4.443-2.94 9.11-3 14-2.603-3.729-3.27-7.729-2-12-1.05-1.017-2.216-1.184-3.5-.5-3.925 6.194-5.758 13.028-5.5 20.5-2.208-4.384-3.041-9.051-2.5-14-3.308-.526-5.474.807-6.5 4l-1.5 7.5a20.147 20.147 0 0 1 .5 9.5 8.908 8.908 0 0 0-3-4 62.687 62.687 0 0 0-1.5-11 3.647 3.647 0 0 1-1.5-1c-3.922 2.988-5.755 6.988-5.5 12 2.007 5.173 1.34 9.84-2 14a73.665 73.665 0 0 1-2.5-9c-.5-18.33-.667-36.664-.5-55a40.936 40.936 0 0 0 9-.5A185.985 185.985 0 0 1 33 74.5 119.721 119.721 0 0 1 49.5 80c10.621.342 20.621-1.824 30-6.5z"/><path style="opacity:1" fill="#fe9900" d="M82.5 96.5c.543.06.876.393 1 1-5.402 6.18-5.235 12.18.5 18l3-4c-.41-5.511 1.59-9.845 6-13a90.2 90.2 0 0 0-1.5 8c-.117 3.097.883 5.764 3 8a18.083 18.083 0 0 0 3.5-2 35.72 35.72 0 0 0 3-9c.368-1.41 1.201-2.41 2.5-3-.341 5.274.326 10.608 2 16 3.692-3.225 6.192-7.225 7.5-12 .893-1.211 1.726-1.211 2.5 0-1.743 4.833-2.41 9.833-2 15 4.317-.82 6.817-3.487 7.5-8 1.389-1.727 3.056-3.061 5-4l1.5 1a18.33 18.33 0 0 0-4 6c1.333 2 1.333 4 0 6 1.574 1.131 3.241 1.298 5 .5l5-7c1.333-.667 2.667-.667 4 0a55.39 55.39 0 0 1-5 11c2 .667 4 .667 6 0 2.464-3.455 5.464-6.289 9-8.5a28.931 28.931 0 0 0 4 1.5 29.517 29.517 0 0 0-4.5 2.5 30.292 30.292 0 0 1-4.5 10c2.265 1.147 4.598 1.314 7 .5a38.929 38.929 0 0 0 5-5.5c1.12-1.333 2.453-1.833 4-1.5a63.241 63.241 0 0 0-5.5 11.5 9.454 9.454 0 0 1-2.5 1.5 24.017 24.017 0 0 1 8.5 4.5c-7.012 29.685-25.178 49.185-54.5 58.5-36.846 8.598-66.346-2.235-88.5-32.5a196.82 196.82 0 0 1-8-17c-.412-2.852.588-5.186 3-7 .738-4.21.572-8.376-.5-12.5a42.716 42.716 0 0 1 2.5-7.5 101.592 101.592 0 0 0 6 18c2.874-1.565 4.374-4.065 4.5-7.5-1.689-6.384-1.189-12.551 1.5-18.5-.776 6.722 1.224 12.388 6 17 1.67-7.619 3.336-15.286 5-23a80.166 80.166 0 0 0 4 17 6.544 6.544 0 0 0 3-3 67.297 67.297 0 0 1 3-16c-.105 5.452 1.728 10.118 5.5 14 2.917-1.834 4.25-4.5 4-8-1.602-4.156-.769-7.823 2.5-11 .651 1.735.485 3.402-.5 5 2.047 3.724 3.047 7.724 3 12 2.792.048 4.625-1.285 5.5-4 .012-5.194.845-10.194 2.5-15 2.79 19.697 5.957 19.697 9.5 0 1.397-1.57 2.897-2.904 4.5-4z"/><path style="opacity:1" fill="#cb0000" d="M160.5 124.5c1.348 4.906 1.182 9.906-.5 15a11.532 11.532 0 0 0-4.5-3.5 134.987 134.987 0 0 1 5-11.5z"/><path style="opacity:1" fill="#010101" d="M122.5 131.5c2.025-2.601 3.858-2.268 5.5 1 .333 1.547-.167 2.88-1.5 4a4.457 4.457 0 0 0 1.5 2 13.92 13.92 0 0 0 4-3c1.299.59 2.132 1.59 2.5 3l-2 5c4.73 10.906 3.897 21.239-2.5 31-6.846 6.677-15.012 8.843-24.5 6.5-8.053-3.41-12.22-9.577-12.5-18.5.373-7.648.373-15.314 0-23-3-4-6-4-9 0a86.591 86.591 0 0 0 3 27c2.54 16.124-4.293 23.624-20.5 22.5-6.754-3.116-9.754-8.449-9-16a118.07 118.07 0 0 0 1-32.5h-6c.166 7.008 0 14.008-.5 21-2.06 8.951-7.56 12.118-16.5 9.5-4.791-3.634-6.624-8.467-5.5-14.5 1.233-4.801 3.733-8.801 7.5-12a4.458 4.458 0 0 1 2 1.5c-3.301 5.039-4.468 10.539-3.5 16.5 1.92 2.938 4.42 3.605 7.5 2 1.542-2.379 2.209-5.046 2-8a60.008 60.008 0 0 0-2-13.5c3.66-11.327 10.66-13.994 21-8 2.951 3.961 4.284 8.461 4 13.5a168.323 168.323 0 0 0-2.5 27c1.243 5.421 4.41 7.088 9.5 5 1.306-1.412 2.14-3.079 2.5-5a169.756 169.756 0 0 0-2.5-33c1.078-13.041 7.744-17.208 20-12.5 4.546 5.636 6.712 12.136 6.5 19.5 1.825-.603 3.659-1.27 5.5-2-.976-1.623-.476-2.957 1.5-4 7.145 1.554 8.312-.613 3.5-6.5l3-1.5c1.657 1.232 3.324 2.066 5 2.5.93-1.395.93-2.895 0-4.5.247-1.213.914-1.88 2-2z"/><path style="opacity:1" fill="#fefffe" d="M-.5 131.5c6.787 40.454 30.12 65.454 70 75h-70v-75z"/><path style="opacity:1" fill="#cb0000" d="M122.5 131.5h3c-1.341 3.104-1.007 5.938 1 8.5a31.2 31.2 0 0 0 7-2 32.367 32.367 0 0 1-3 4.5c-4.536.206-9.202.206-14 0 .203-1.89-.463-3.39-2-4.5 2.402 1.046 5.068 1.546 8 1.5v-8z"/><path style="opacity:1" fill="#fefffe" d="M165.5 133.5v73h-70c38.697-9.695 62.03-34.028 70-73zM117.5 146.5c1.41-1.328 2.576-.995 3.5 1 1.067-1.783 2.567-2.283 4.5-1.5-2.679 2.86-5.346 3.027-8 .5z"/><path style="opacity:1" fill="#fe9900" d="M101.5 150.5a271.2 271.2 0 0 1 12.5 4c4.083-1.419 8.25-1.919 12.5-1.5.67 5.675-.497 11.175-3.5 16.5-5.646 4.53-11.813 5.197-18.5 2-2.203-1.795-3.369-4.129-3.5-7a45.019 45.019 0 0 1 .5-14z"/></svg>
